svgs/sharp-light/mug-saucer.svg

<svg xmlns="http://www.w3.org/2000/svg" viewBox="0 0 640 512"><!--! Font Awesome Pro 6.6.0 by @fontawesome - https://fontawesome.com License - https://fontawesome.com/license (Commercial License) Copyright 2024 Fonticons, Inc. --><path d="M416 64l16 0 16 0 0 160 0 32 0 96-320 0 0-288 288 0zm64 288l0-96 48 0c61.9 0 112-50.1 112-112s-50.1-112-112-112l-48 0-32 0-16 0-16 0L128 32 96 32l0 32 0 288 0 32 32 0 320 0 32 0 0-32zm48-128l-48 0 0-160 48 0c44.2 0 80 35.8 80 80s-35.8 80-80 80zM16 448L0 448l0 32 16 0 544 0 16 0 0-32-16 0L16 448z"/></svg>

<svg xmlns="http://www.w3.org/2000/svg" viewBox="0 0 640 512"><!--! Font Awesome Pro 6.4.2 by @fontawesome - https://fontawesome.com License - https://fontawesome.com/license (Commercial License) Copyright 2023 Fonticons, Inc. --><path d="M416 64h16 16V224v32 96H128V64H416zm64 288V256h48c61.9 0 112-50.1 112-112s-50.1-112-112-112H480 448 432 416 128 96V64 352v32h32H448h32V352zm48-128H480V64h48c44.2 0 80 35.8 80 80s-35.8 80-80 80zM16 448H0v32H16 560h16V448H560 16z"/></svg>
